X: 20
T:Pidgeon On The Gate, The
M:4/4
L:1/8
Q:180
K:D
GA|"Em"BEEE BEdE|B2 Bd BAFE|"D"D2 FD ADFD|DEFA BAFA|
"Em"BEEE BEdE|B2 Bd BAFE|"D"D2 FA dfec|dBAF "Em"E2::
FA|"Em"Beed efed|Bdef gfed|"D"BAFA d2 dB|AF F2 DEFA|
"Em"Beed efed|Bdef g2 fg|"D"af"A"ge "D"fd"A"ec|"D"dBAF "Em"E2:|
